X:95
M:6/8
L:1/8
Q:3/8=110
K:G
|:g2 e f2 d|g2 e f2 d|gfe agf|efd ^cBA|\
g2 e f2 d|g2 e f2 d|efd ^cBA|d3D3|

